symbolic/48x48/apps/restatic.svg

<svg xmlns="http://www.w3.org/2000/svg" width="48" height="48" version="1">
 <rect style="opacity:0.2" width="40" height="40" x="4" y="5" rx="20" ry="20"/>
 <rect style="fill:#59657f" width="40" height="40" x="4" y="4" rx="20" ry="20"/>
 <path style="fill:none;stroke:#9f9f9f;stroke-width:1px;stroke-linecap:round;stroke-linejoin:round" d="m 7.4038981,11.088003 3.6121989,12.0126"/>
 <path style="fill:#c3a178" d="M 17.985989,33.073555 21.61296,34.211909 21.5,37.107993 19.6,37.612947 Z"/>
 <path style="fill:#c3a178" d="M 25.56437,33.39524 29.251822,32.471411 30.668261,35 l -1.35643,1.423052 z"/>
 <ellipse style="opacity:0.1" cx="23.689" cy="31.028" rx="8.825" ry="5.972"/>
 <path style="opacity:0.1" d="M 30.667969 36 C 29.920381 36.707705 29.029107 36.770182 29 37.923828 L 31.160156 39 L 32.90625 37.914062 C 33.321691 36.64347 32.279678 36.73243 31.460938 36.919922 L 30.667969 36 z M 21.166016 38 C 20.371738 38.002253 19.684416 38.303394 19 38.613281 L 19.689453 39.759766 C 19.281526 40.379939 18.937857 40.97927 20.328125 41 L 21.775391 39.746094 L 22 38.107422 C 21.707721 38.031111 21.430775 37.999249 21.166016 38 z"/>
 <path style="fill:#ffe252" d="M 30.668261,35 C 29.920673,35.707705 29.029107,35.770989 29,36.924635 L 31.160988,38 32.905536,36.914074 c 0.415441,-1.270592 -0.625645,-1.182495 -1.444385,-0.995003 z"/>
 <ellipse style="fill:#d4bca1" cx="23.689" cy="30.028" rx="8.825" ry="5.972"/>
 <path style="fill:none;stroke:#fa4648;stroke-width:1px;stroke-linecap:round;stroke-linejoin:round" d="M 11.016097,23.100603 C 12.2086,27.468137 9.6196623,24.833256 9.609,24.810865"/>
 <path style="fill:#d4bca1" d="m 12.635104,25.112677 c -1.128507,0 -1.635103,-0.275589 -1.635104,-1.121966 0,-0.846381 0.992267,-1.066472 2.120774,-1.066472 z"/>
 <path style="fill:#ffe252" d="m 14.73843,26.269619 -2.51509,-1.156942 0.48567,-2.188438 4.9034,-1.154238 6.331252,3.499999 -0.905433,6.381912 c -3.030096,-0.0478 -6.055035,-0.147166 -8.953723,-1.509054 z"/>
 <path style="fill:none;stroke:#fa4648;stroke-width:1px;stroke-linecap:round;stroke-linejoin:round" d="m 36.978497,22.147488 c -1.192503,4.367534 1.396435,1.732653 1.407097,1.710262"/>
 <path style="fill:none;stroke:#9f9f9f;stroke-width:1px;stroke-linecap:round;stroke-linejoin:round" d="m 40.590696,10.134888 -3.612199,12.0126"/>
 <path style="fill:#d4bca1" d="m 35.159835,24.159562 c 1.128507,0 1.834758,-0.275589 1.834759,-1.121966 0,-0.846381 -1.191922,-1.066472 -2.320429,-1.066472 z"/>
 <path style="fill:#ffe252" d="m 32.142858,26.118714 3.216632,-1.959152 -0.48567,-2.188438 -5.80615,0.05039 -5.124008,3.24849 0.100604,6.532817 c 3.030096,-0.0478 6.558053,-0.197467 9.054327,-2.263581 z"/>
 <ellipse style="fill:#c3a178" cx="-32.566" cy="1.25" rx="1.434" ry="1.811" transform="matrix(-0.92222842,-0.3866455,-0.3866455,0.92222842,0,0)"/>
 <ellipse style="fill:#c3a178" cx="10.82" cy="19.443" rx="1.434" ry="1.811" transform="rotate(-22.745933)"/>
 <path fill="#fff" style="opacity:0.1" d="m24 4c-11.08 0-20 8.92-20 20 0 0.168 0.008 0.333 0.0117 0.5 0.2647-10.846 9.0763-19.5 19.988-19.5s19.724 8.6539 19.988 19.5c0.004-0.16686 0.0117-0.33213 0.0117-0.5 0-11.08-8.92-20-20-20z"/>
 <path style="opacity:0.1" d="m 31.585932,19.471136 c 0,3.298317 -6.344041,7.353904 -7.697413,7.232913 -2.658034,-0.237627 -8.493696,-3.934597 -8.493696,-7.232913 0,-3.298316 3.624503,-5.97213 8.095554,-5.97213 4.471051,0 8.095555,2.673813 8.095555,5.97213 z"/>
 <path style="fill:#d4bca1" d="m 31.585932,18.471136 c 0,3.298317 -6.344041,7.353904 -7.697413,7.232913 -2.658034,-0.237627 -8.493696,-3.934597 -8.493696,-7.232913 0,-3.298316 3.624503,-5.97213 8.095554,-5.97213 4.471051,0 8.095555,2.673813 8.095555,5.97213 z"/>
 <path style="opacity:0.1" d="m 21.048442,14.217858 c 1.925676,0.631244 3.794549,0.779183 5.596003,0 C 26.551244,15.31223 27.808935,16 24.101704,16 20.394473,16 20.988895,15.646111 21.048442,14.217858 Z"/>
 <path style="fill:#91dc1c" d="m 23.846443,11 c 1.192037,0.577532 1.689738,1.502035 2.122623,2.458929 -0.484626,0.88633 -1.25594,0.984267 -2.315588,0.289286 z"/>
 <path style="fill:#7c87e2" d="m 23.846443,11 c 1.231419,0.184775 2.447036,0.398876 2.798002,2.217858 l -0.675379,0.241071 C 25.412458,12.502035 24.784592,11.577532 23.846443,11 Z"/>
 <path style="fill:#e15d85" d="m 23.846443,11 c -1.192036,0.577532 -1.689738,1.502035 -2.122622,2.458929 0.677819,1.224947 1.497641,0.745868 2.315588,0.289286 z"/>
 <path style="fill:#ed8061" d="m 23.846443,11 c -1.231418,0.184775 -2.447036,0.398876 -2.798001,2.217858 l 0.675379,0.241071 C 22.280429,12.502035 22.908294,11.577532 23.846443,11 Z"/>
 <path style="fill:#ffe252" d="m 21.048442,13.217858 c 1.925676,0.631244 3.794549,0.779183 5.596003,0 C 26.551244,14.31223 27.808935,15 24.101704,15 20.394473,15 20.988895,14.646111 21.048442,13.217858 Z"/>
 <ellipse style="fill:#ff5151" cx="23.5" cy="20.887" rx="1" ry="1.157"/>
 <ellipse style="fill:#e6d8c7" cx="23.5" cy="20.17" rx="1.5" ry=".83"/>
 <ellipse style="fill:#3f3f3f" cx="23.55" cy="19.5" rx=".75" ry=".5"/>
 <path style="fill:#ffe252" d="m 19,37.612947 c 0.912554,-0.413183 1.830882,-0.810199 3,-0.504954 L 21.775469,38.74656 20.32787,40 c -1.390268,-0.02073 -1.047272,-0.619259 -0.639345,-1.239432 z"/>
 <path style="opacity:0.1" d="M 38.355469 10.976562 C 35.495156 10.980446 32.958788 12.815634 32.060547 15.53125 C 32.465078 15.381444 32.892842 15.304134 33.324219 15.302734 C 34.73052 15.304439 36.012328 16.109173 36.625 17.375 C 36.964069 17.171563 37.354024 17.06343 37.751953 17.0625 C 38.889405 17.063444 39.831763 17.924714 39.908203 19.033203 C 40.577268 18.445073 41.437315 18.120241 42.328125 18.119141 C 43.251988 18.121062 44.141177 18.471158 44.818359 19.099609 C 44.93249 18.613647 44.991441 18.116364 44.994141 17.617188 C 44.994575 13.950255 42.022402 10.977208 38.355469 10.976562 z M 9.6386719 11.929688 C 5.971739 11.930333 2.999566 14.903379 3 18.570312 C 3.00268 19.069489 3.061649 19.566772 3.1757812 20.052734 C 3.8529628 19.424283 4.7421529 19.074187 5.6660156 19.072266 C 6.556826 19.073366 7.4168728 19.398198 8.0859375 19.986328 C 8.1623745 18.877839 9.1047357 18.016569 10.242188 18.015625 C 10.640116 18.016555 11.030072 18.124688 11.369141 18.328125 C 11.981813 17.062298 13.263621 16.257564 14.669922 16.255859 C 15.101299 16.257259 15.529063 16.334569 15.933594 16.484375 C 15.035353 13.768759 12.498985 11.933571 9.6386719 11.929688 z"/>
 <path style="fill:#fa4648" d="M 9.6386719,10.928953 C 5.971739,10.929598 2.999566,13.902645 3,17.569578 c 0.00268,0.499177 0.061649,0.99646 0.1757812,1.482422 0.6771816,-0.628451 1.5663717,-0.978548 2.4902344,-0.980469 0.8908104,0.0011 1.7508572,0.325933 2.4199219,0.914063 0.076437,-1.108489 1.0187977,-1.969759 2.1562495,-1.970703 0.397929,9.3e-4 0.787884,0.109063 1.126953,0.3125 0.612672,-1.265827 1.894481,-2.070561 3.300782,-2.072266 0.431377,0.0014 0.859141,0.07871 1.263672,0.228516 -0.898241,-2.715616 -3.434609,-4.550804 -6.2949221,-4.554688 z"/>
 <path style="opacity:0.1" d="M 18 17 A 3 3 0 0 0 15 20 A 3 3 0 0 0 18 23 A 3 3 0 0 0 21 20 A 3 3 0 0 0 18 17 z M 29 17 A 3 3 0 0 0 26 20 A 3 3 0 0 0 29 23 A 3 3 0 0 0 32 20 A 3 3 0 0 0 29 17 z"/>
 <circle style="fill:#f4f4f7" cx="18" cy="19" r="3"/>
 <circle style="fill:#3f3f3f" cx="18" cy="19" r="1"/>
 <circle style="fill:#f4f4f7" cx="29" cy="19" r="3"/>
 <circle style="fill:#3f3f3f" cx="29" cy="19" r="1"/>
 <path style="fill:#fa4648" d="m 38.355922,9.9758383 c 3.666933,6.45e-4 6.639106,2.9736917 6.638672,6.6406247 -0.0027,0.499177 -0.06165,0.99646 -0.175781,1.482422 -0.677182,-0.628451 -1.566372,-0.978548 -2.490235,-0.980469 -0.89081,0.0011 -1.750857,0.325933 -2.419922,0.914063 -0.07644,-1.108489 -1.018797,-1.969759 -2.156249,-1.970703 -0.397929,9.3e-4 -0.787884,0.109063 -1.126953,0.3125 -0.612672,-1.265827 -1.894481,-2.070561 -3.300782,-2.072266 -0.431377,0.0014 -0.859141,0.07871 -1.263672,0.228516 0.898241,-2.715616 3.434609,-4.5508037 6.294922,-4.5546877 z"/>
</svg>

<svg xmlns="http://www.w3.org/2000/svg" width="48" height="48" version="1"><rect style="opacity:.2" width="40" height="40" x="4" y="5" rx="20" ry="20"/><rect style="fill:#59657f" width="40" height="40" x="4" y="4" rx="20" ry="20"/><path style="fill:none;stroke:#9f9f9f;stroke-width:1px;stroke-linecap:round;stroke-linejoin:round" d="m7.404 11.088 3.612 12.013"/><path style="fill:#c3a178" d="m17.986 33.074 3.627 1.138-.113 2.896-1.9.505zM25.564 33.395l3.688-.924L30.668 35l-1.356 1.423z"/><ellipse style="opacity:.1" cx="23.689" cy="31.028" rx="8.825" ry="5.972"/><path style="opacity:.1" d="M30.668 36c-.748.708-1.639.77-1.668 1.924L31.16 39l1.746-1.086c.416-1.27-.626-1.182-1.445-.994l-.793-.92zm-9.502 2c-.794.002-1.482.303-2.166.613l.69 1.147c-.408.62-.752 1.22.638 1.24l1.447-1.254.225-1.639a3.243 3.243 0 0 0-.834-.107z"/><path style="fill:#ffe252" d="M30.668 35c-.747.708-1.639.771-1.668 1.925L31.161 38l1.745-1.086c.415-1.27-.626-1.182-1.445-.995z"/><ellipse style="fill:#d4bca1" cx="23.689" cy="30.028" rx="8.825" ry="5.972"/><path style="fill:none;stroke:#fa4648;stroke-width:1px;stroke-linecap:round;stroke-linejoin:round" d="M11.016 23.1c1.193 4.368-1.396 1.733-1.407 1.71"/><path style="fill:#d4bca1" d="M12.635 25.113c-1.128 0-1.635-.276-1.635-1.122 0-.847.992-1.067 2.12-1.067z"/><path style="fill:#ffe252" d="m14.738 26.27-2.515-1.157.486-2.189 4.903-1.154 6.332 3.5-.906 6.382c-3.03-.048-6.055-.147-8.953-1.51z"/><path style="fill:none;stroke:#fa4648;stroke-width:1px;stroke-linecap:round;stroke-linejoin:round" d="M36.978 22.147c-1.192 4.368 1.397 1.733 1.408 1.71"/><path style="fill:none;stroke:#9f9f9f;stroke-width:1px;stroke-linecap:round;stroke-linejoin:round" d="m40.59 10.135-3.612 12.012"/><path style="fill:#d4bca1" d="M35.16 24.16c1.128 0 1.835-.276 1.835-1.122 0-.847-1.192-1.067-2.32-1.067z"/><path style="fill:#ffe252" d="m32.143 26.119 3.216-1.96-.485-2.188-5.806.05-5.124 3.249.1 6.533c3.03-.048 6.558-.198 9.055-2.264z"/><ellipse style="fill:#c3a178" cx="-32.566" cy="1.25" rx="1.434" ry="1.811" transform="scale(-1 1) rotate(-22.746)"/><ellipse style="fill:#c3a178" cx="10.82" cy="19.443" rx="1.434" ry="1.811" transform="rotate(-22.746)"/><path fill="#fff" style="opacity:.1" d="M24 4C12.92 4 4 12.92 4 24c0 .168.008.333.012.5C4.276 13.654 13.088 5 24 5s19.724 8.654 19.988 19.5c.004-.167.011-.332.011-.5 0-11.08-8.92-20-20-20z"/><path style="opacity:.1" d="M31.586 19.471c0 3.298-6.344 7.354-7.697 7.233-2.659-.238-8.494-3.935-8.494-7.233 0-3.298 3.624-5.972 8.095-5.972s8.096 2.674 8.096 5.972z"/><path style="fill:#d4bca1" d="M31.586 18.471c0 3.298-6.344 7.354-7.697 7.233-2.659-.238-8.494-3.935-8.494-7.233 0-3.298 3.624-5.972 8.095-5.972s8.096 2.674 8.096 5.972z"/><path style="opacity:.1" d="M21.048 14.218c1.926.631 3.795.779 5.596 0C26.551 15.312 27.81 16 24.102 16c-3.708 0-3.113-.354-3.054-1.782z"/><path style="fill:#91dc1c" d="M23.846 11c1.192.578 1.69 1.502 2.123 2.459-.485.886-1.256.984-2.316.29z"/><path style="fill:#7c87e2" d="M23.846 11c1.232.185 2.447.399 2.798 2.218l-.675.24c-.557-.956-1.184-1.88-2.123-2.458z"/><path style="fill:#e15d85" d="M23.846 11c-1.192.578-1.69 1.502-2.122 2.459.678 1.225 1.497.746 2.315.29z"/><path style="fill:#ed8061" d="M23.846 11c-1.231.185-2.447.399-2.798 2.218l.676.24c.556-.956 1.184-1.88 2.122-2.458z"/><path style="fill:#ffe252" d="M21.048 13.218c1.926.631 3.795.779 5.596 0C26.551 14.312 27.81 15 24.102 15c-3.708 0-3.113-.354-3.054-1.782z"/><ellipse style="fill:#ff5151" cx="23.5" cy="20.887" rx="1" ry="1.157"/><ellipse style="fill:#e6d8c7" cx="23.5" cy="20.17" rx="1.5" ry=".83"/><ellipse style="fill:#3f3f3f" cx="23.55" cy="19.5" rx=".75" ry=".5"/><path style="fill:#ffe252" d="M19 37.613c.913-.413 1.83-.81 3-.505l-.225 1.639L20.328 40c-1.39-.02-1.047-.62-.64-1.24z"/><path style="opacity:.1" d="M38.355 10.977a6.64 6.64 0 0 0-6.294 4.554c.404-.15.832-.227 1.263-.228a3.672 3.672 0 0 1 3.301 2.072c.34-.203.729-.312 1.127-.313 1.137.001 2.08.863 2.156 1.971a3.672 3.672 0 0 1 2.42-.914 3.672 3.672 0 0 1 2.49.98 6.64 6.64 0 0 0 .176-1.482 6.64 6.64 0 0 0-6.639-6.64zM9.64 11.93A6.64 6.64 0 0 0 3 18.57c.003.5.062.997.176 1.483a3.672 3.672 0 0 1 2.49-.98c.89 0 1.75.325 2.42.913.076-1.108 1.019-1.97 2.156-1.97.398 0 .788.109 1.127.312a3.672 3.672 0 0 1 3.3-2.072c.432.001.86.079 1.265.228a6.64 6.64 0 0 0-6.295-4.554z"/><path style="fill:#fa4648" d="M9.639 10.929A6.64 6.64 0 0 0 3 17.569c.003.5.062.997.176 1.483a3.672 3.672 0 0 1 2.49-.98c.89 0 1.75.325 2.42.914.076-1.109 1.019-1.97 2.156-1.971.398 0 .788.109 1.127.312a3.672 3.672 0 0 1 3.3-2.072c.432.002.86.079 1.265.229a6.64 6.64 0 0 0-6.295-4.555z"/><path style="opacity:.1" d="M18 17a3 3 0 0 0-3 3 3 3 0 0 0 3 3 3 3 0 0 0 3-3 3 3 0 0 0-3-3zm11 0a3 3 0 0 0-3 3 3 3 0 0 0 3 3 3 3 0 0 0 3-3 3 3 0 0 0-3-3z"/><circle style="fill:#f4f4f7" cx="18" cy="19" r="3"/><circle style="fill:#3f3f3f" cx="18" cy="19" r="1"/><circle style="fill:#f4f4f7" cx="29" cy="19" r="3"/><circle style="fill:#3f3f3f" cx="29" cy="19" r="1"/><path style="fill:#fa4648" d="M38.356 9.976a6.64 6.64 0 0 1 6.639 6.64 6.64 6.64 0 0 1-.176 1.483 3.672 3.672 0 0 0-2.49-.98c-.891 0-1.751.325-2.42.913-.077-1.108-1.02-1.97-2.157-1.97-.398 0-.787.109-1.127.312a3.672 3.672 0 0 0-3.3-2.072c-.432.001-.86.079-1.264.229a6.64 6.64 0 0 1 6.295-4.555z"/></svg>
